_src/design/images/sprite/cart.svg

<svg width="24" height="24" viewBox="0 0 24 24" fill="none" xmlns="http://www.w3.org/2000/svg">
<path d="M17 18C17.5304 18 18.0391 18.2107 18.4142 18.5858C18.7893 18.9609 19 19.4696 19 20C19 20.5304 18.7893 21.0391 18.4142 21.4142C18.0391 21.7893 17.5304 22 17 22C15.89 22 15 21.1 15 20C15 18.89 15.89 18 17 18ZM1 2H4.27L5.21 4H20C20.2652 4 20.5196 4.10536 20.7071 4.29289C20.8946 4.48043 21 4.73478 21 5C21 5.17 20.95 5.34 20.88 5.5L17.3 11.97C16.96 12.58 16.3 13 15.55 13H8.1L7.2 14.63L7.17 14.75C7.17 14.8163 7.19634 14.8799 7.24322 14.9268C7.29011 14.9737 7.3537 15 7.42 15H19V17H7C5.89 17 5 16.1 5 15C5 14.65 5.09 14.32 5.24 14.04L6.6 11.59L3 4H1V2ZM7 18C7.53043 18 8.03914 18.2107 8.41421 18.5858C8.78929 18.9609 9 19.4696 9 20C9 20.5304 8.78929 21.0391 8.41421 21.4142C8.03914 21.7893 7.53043 22 7 22C5.89 22 5 21.1 5 20C5 18.89 5.89 18 7 18ZM16 11L18.78 6H6.14L8.5 11H16Z" fill="#0B1129"/>
</svg>

<svg width="24" height="24" fill="none" xmlns="http://www.w3.org/2000/svg"><path d="M17 18a2 2 0 11-2 2c0-1.11.89-2 2-2zM1 2h3.27l.94 2H20a1 1 0 011 1c0 .17-.05.34-.12.5l-3.58 6.47c-.34.61-1 1.03-1.75 1.03H8.1l-.9 1.63-.03.12a.25.25 0 00.25.25H19v2H7a2 2 0 01-2-2c0-.35.09-.68.24-.96l1.36-2.45L3 4H1V2zm6 16a2 2 0 11-2 2c0-1.11.89-2 2-2zm9-7l2.78-5H6.14l2.36 5H16z" fill="#0B1129"/></svg>
